X:1
T:The Soldiers Return  "soldretn2.bmw"
M:C
L:1/8
Q:80
C:St. Ann's of Hampton Version
S:March
K:HP
|: {g}d3/2e/2 | \
{g}f2A2{GAG}A2{g}d3/2c/2 | \
{gBd}BA{g}B/2d3/2{gef}e2{g}d3/2e/2 |
{g}f2{AGAG}A2{gf}g3/2f/2{gef}ed | \
{g}B3c{Gdc}d2{g}d3/2e/2 | \
{g}f2A2{GAG}A2{g}d3/2c/2 |
{gBd}BA{g}B/2d3/2{gef}e2{g}d3/2e/2 | \
{g}f2{AGAG}A2{gf}g3/2f/2{gef}ed | \
{g}B3c{Gdc}d2 ::
A | \
{Gdc}d3/2e/2{g}f3/2g/2{ag}a3f | \
{gf}g3/2f/2{gef}ed{gef}e3A | \
{Gdc}d3/2e/2{g}f3/2g/2{ag}a3g |
{fg}f3g{ag}a3A | | \
{Gdc}d3/2e/2{g}f3/2g/2{ag}a3f | \
{gf}g3/2f/2{gef}ed{gef}e2{g}d3/2e/2 |
{g}f2{AGAG}A2{gf}g3/2f/2{gef}ed | \
{g}B3c{Gdc}d2 :|
